icons/speech-bubbles-outline.svg

<svg xmlns="http://www.w3.org/2000/svg" width="24" height="24" viewBox="0 0 24 24">
  <path d="M20.99,10.575 C22.676,11.335 23.85,13.03 23.85,15 C23.85,17.317 22.226,19.254 20.054,19.735 L19.85,19.775 L19.85,21 C19.85,21.546 19.347,21.94 18.83,21.833 L18.726,21.805 L18.466,21.715 C16.902,21.171 15.871,20.605 15.416,19.897 L15.389,19.85 L15,19.85 C13.708,19.85 12.533,19.345 11.664,18.52 C12.02,18.146 12.288,17.773 12.47,17.4 L12.96,17.4 C13.51,17.868 14.222,18.15 15,18.15 L16,18.15 C16.47,18.15 16.85,18.53 16.85,19 C16.85,19.072 17.123,19.289 17.699,19.57 L18.012,19.714 L18.15,19.774 L18.15,19 C18.15,18.567 18.474,18.21 18.893,18.157 L19,18.15 C20.74,18.15 22.15,16.74 22.15,15 C22.15,13.88 21.565,12.896 20.684,12.337 C20.844,11.81 20.947,11.255 20.984,10.683 L20.99,10.575 Z M12,2 C15.866,2 19,5.134 19,9 C19,12.866 15.866,16 12,16 L12,16 L11.31,16 L11.268,16.059 C10.63,16.929 9.582,17.745 8.125,18.541 L8.125,18.541 L7.781,18.724 L7.455,18.89 C6.79,19.23 6,18.747 6,18 L6,18 L6,15.928 L5.818,15.9 C2.592,15.352 0.117,12.596 0.004,9.24 L0.004,9.24 L0,9 C0,5.134 3.134,2 7,2 L7,2 Z M12,4 L7,4 C4.239,4 2,6.239 2,9 C2,11.761 4.239,14 7,14 C7.552,14 8,14.448 8,15 L8,15 L8,16.294 L8.144,16.202 C8.959,15.665 9.505,15.152 9.785,14.68 L9.785,14.68 L9.855,14.553 C10.025,14.214 10.371,14 10.75,14 L10.75,14 L12,14 C14.761,14 17,11.761 17,9 C17,6.239 14.761,4 12,4 L12,4 Z"/>
</svg>

<svg xmlns="http://www.w3.org/2000/svg" viewBox="0 0 24 24">
  <path d="M20.99 10.57a4.85 4.85 0 0 1-.94 9.16l-.2.04V21c0 .55-.5.94-1.02.83l-.1-.02-.26-.1c-1.57-.54-2.6-1.1-3.05-1.81l-.03-.05H15a4.8 4.8 0 0 1-3.34-1.33c.36-.37.63-.75.81-1.12h.49c.55.47 1.26.75 2.04.75h1c.47 0 .85.38.85.85 0 .07.27.29.85.57l.31.14.14.06V19c0-.43.32-.79.74-.84l.11-.01a3.15 3.15 0 0 0 1.68-5.81c.16-.53.27-1.08.3-1.66l.01-.1zM12 2a7 7 0 1 1 0 14h-.69l-.04.06a9.44 9.44 0 0 1-3.14 2.48l-.35.18-.33.17A1 1 0 0 1 6 18v-2.07l-.18-.03A7 7 0 0 1 0 9.24V9a7 7 0 0 1 7-7zm0 2H7a5 5 0 0 0 0 10 1 1 0 0 1 1 1v1.3l.14-.1a5.23 5.23 0 0 0 1.64-1.52l.08-.13a1 1 0 0 1 .89-.55H12a5 5 0 0 0 0-10z"/>
</svg>
